X:14
T:Fairy Dance
T:Datchett
M:4/4
L:1/8
R:Reel
K:D
P:A
|:F2FD F2FD | F2FD CDEG | F2FD GFED | CA,B,C DEFG:|!
P:B
|:A2AF B2BF| G2GE A2AG| F2FD GFED|1 CA,B,C DEFG :|2 CA,B,C D4 ||!
K:Gmaj
P:C
|:B2BG B2BG | B2BG FGAc | B2BG cBAG | FDEF GABc:|!
P:D
|:d2dB e2eB| c2cA d2dc| B2BG cBAG|1 FDEF GABc :|2 FDEF G4 ||!

